assets/images/script/t-7-e3.svg

<svg fill="none" height="242" viewBox="0 0 348 242" width="348" xmlns="http://www.w3.org/2000/svg"><g stroke="#000" stroke-linecap="round" stroke-width="5"><path d="m159.586 4.1565c1.307 0 3.269 0 .446 0-10.756 0-21.51.04704-32.263-.29736-40.3173-1.2913-80.5617 1.47381-120.87486.60686-3.72872-.08019-5.16628-2.04404-3.56827-.44603 7.07513 7.07513 13.35113 16.34793 18.73343 24.68053 16.0471 24.8433 27.0756 45.2449 37.7641 72.6915 14.7044 37.758 20.0187 42.414 26.3589 82.712 2.5159 15.991 4.5304 37.218-8.1773 49.807-9.6509 9.561-21.1457 4.741-25.7212-6.839-19.1648-48.504 20.4157-73.485 59.4282-103.23 13.032-9.936 35.099-26.5657 52.632-26.1672 13.591.3089 13.878 25.7112 15.611 34.6422 2.218 11.425 4.094 25.284 10.11 35.534 1.978 3.369 1.636-4.816 1.636-5.799"/><path d="m198.391 94.4856c.889-8.0027 6.345 4.0869 6.616 6.3934 1.871 15.898-5.055 42.396 13.158 50.253 10.166 4.385 24.31 2.295 34.94 2.156 22.609-.296 45.18-1.264 67.797-1.264 1.354 0 33.984 1.338 20.666 1.338"/></g></svg>

<svg width="348" height="242" viewBox="0 0 348 242" fill="none" xmlns="http://www.w3.org/2000/svg">
<path d="M159.586 4.1565C160.893 4.1565 162.855 4.1565 160.032 4.1565C149.276 4.1565 138.522 4.20354 127.769 3.85914C87.4517 2.56784 47.2073 5.33295 6.89414 4.466C3.16542 4.38581 1.72786 2.42196 3.32587 4.01997C10.401 11.0951 16.677 20.3679 22.0593 28.7005C38.1064 53.5438 49.1349 73.9454 59.8234 101.392C74.5278 139.15 79.8421 143.806 86.1823 184.104C88.6982 200.095 90.7127 221.322 78.005 233.911C68.3541 243.472 56.8593 238.652 52.2838 227.072C33.119 178.568 72.6995 153.587 111.712 123.842C124.744 113.906 146.811 97.2763 164.344 97.6748C177.935 97.9837 178.222 123.386 179.955 132.317C182.173 143.742 184.049 157.601 190.065 167.851C192.043 171.22 191.701 163.035 191.701 162.052" stroke="black" stroke-width="5" stroke-linecap="round"/>
<path d="M198.391 94.4856C199.28 86.4829 204.736 98.5725 205.007 100.879C206.878 116.777 199.952 143.275 218.165 151.132C228.331 155.517 242.475 153.427 253.105 153.288C275.714 152.992 298.285 152.024 320.902 152.024C322.256 152.024 354.886 153.362 341.568 153.362" stroke="black" stroke-width="5" stroke-linecap="round"/>
</svg>
